X:1
T:Johnny's Gone to France
R:Reel
S:Cyrille Gaillard (Mai 2005)
D:Téada (2002)
K:D
M:2/2
Q:140
% partie A
| "D" BFF/F/F B2AF | EFDE FAA2 | BFF/F/F B2"G"AF | EFDE FDD2
| "D" BFF/F/F B2AF | EFDE FAA2 | BABc d2"G"AF | EFDE "Bbm"FDD2
% partie B
|| "Bm"dfed BAFA | dfed Bee2 | "G"dfed B2AF | EFDE FDD2
| "Em"dfed BAFA | dfed Bee2 | "G"fdef d2"A"AF | EFDE FDD2 |]
